X: 25851
T: Master's Daughter, The
R: reel
M: 4/4
K: Gmajor
|:GBde dB3|ABcd BGFG|Ec3 DGBe|dB3 A3B|
GBde dB3|ABcd BGFG|Ec3 Dgfe|dBcA Gdef:|
|:g3d edBc|dged edBA|G3B dGBd|gedB ABcA|
d3e dB3|ABcd BGFG|Ec3 Dgfe|dBcA G3B:|

